<?xml version="1.0" encoding="UTF-8"?>
<map version="1.10" tiledversion="1.10.2" orientation="orthogonal" renderorder="left-up" width="12" height="12" tilewidth="16" tileheight="16" infinite="0" nextlayerid="2" nextobjectid="1">
 <tileset firstgid="1" source="Dungeon_Tileset.tsx"/>
 <layer id="1" name="Calque de Tuiles 1" width="12" height="12">
  <data encoding="csv">
79,79,79,79,1,3,4,6,79,79,79,79,
11,4,4,3,3,12,15,3,5,5,4,16,
11,12,14,14,14,14,14,14,14,14,15,16,
41,56,22,24,24,24,24,24,24,25,51,46,
79,11,22,24,24,24,24,24,24,25,16,79,
79,11,22,24,24,24,24,24,24,25,16,79,
79,11,22,33,33,24,24,34,34,25,16,79,
79,11,22,51,54,22,25,51,54,25,16,79,
79,11,22,16,31,22,25,16,11,25,16,79,
79,11,32,16,31,22,25,16,31,35,16,79,
79,41,42,46,31,22,25,16,41,42,46,79,
79,79,79,79,31,22,25,16,79,79,79,79
</data>
 </layer>
</map>
