<?xml version="1.0" encoding="UTF-8"?>
<map version="1.10" tiledversion="1.10.2" orientation="orthogonal" renderorder="left-up" width="10" height="10" tilewidth="16" tileheight="16" infinite="0" nextlayerid="2" nextobjectid="1">
 <tileset firstgid="1" source="Dungeon_Tileset.tsx"/>
 <layer id="1" name="Calque de Tuiles 1" width="10" height="10">
  <data encoding="csv">
79,79,79,79,79,79,79,79,79,79,
79,1,3,3,2,3,4,5,6,79,
79,11,12,13,14,14,14,15,16,79,
79,11,22,24,24,24,24,25,5,5,
79,21,22,24,24,24,24,23,14,14,
79,11,22,24,24,24,24,23,34,34,
79,21,22,24,24,24,24,25,51,53,
79,11,32,33,34,33,34,35,26,79,
79,41,42,42,42,42,43,44,46,79,
79,79,79,79,79,79,79,79,79,79
</data>
 </layer>
</map>
