<?xml version="1.0" encoding="UTF-8"?>
<map version="1.10" tiledversion="1.10.2" orientation="orthogonal" renderorder="left-up" width="10" height="20" tilewidth="16" tileheight="16" infinite="0" nextlayerid="2" nextobjectid="1">
 <tileset firstgid="1" source="Dungeon_Tileset.tsx"/>
 <layer id="1" name="Calque de Tuiles 1" width="10" height="20">
  <data encoding="csv">
79,79,79,21,22,25,26,79,79,79,
79,79,79,21,22,25,26,79,79,79,
79,79,79,21,22,25,26,79,79,79,
79,21,3,3,22,25,2,3,16,79,
79,11,12,13,24,24,14,15,16,79,
79,11,22,55,42,42,56,25,16,79,
79,11,22,2,2,2,2,25,16,79,
79,11,32,33,14,14,34,35,16,79,
79,41,42,54,22,25,51,42,46,79,
1,3,3,3,22,25,36,79,79,79,
11,24,24,24,24,24,16,79,79,79,
11,24,24,24,24,24,16,79,79,79,
11,24,80,51,42,42,46,79,79,79,
11,24,80,36,1,4,4,4,6,79,
11,24,24,36,11,23,23,23,16,79,
11,23,23,36,41,52,56,23,16,79,
11,23,23,3,2,2,2,23,16,79,
11,23,23,23,23,23,23,23,16,79,
11,23,23,23,23,23,23,23,16,79,
41,52,52,52,52,52,52,52,46,79
</data>
 </layer>
</map>
