<?xml version="1.0" encoding="UTF-8"?>
<map version="1.10" tiledversion="1.10.2" orientation="orthogonal" renderorder="left-up" width="10" height="10" tilewidth="16" tileheight="16" infinite="0" nextlayerid="2" nextobjectid="1">
 <tileset firstgid="1" source="Dungeon_Tileset.tsx"/>
 <layer id="1" name="Calque de Tuiles 1" width="10" height="10">
  <data encoding="csv">
79,79,79,1,67,68,6,79,79,79,
79,1,4,5,12,15,3,5,6,79,
79,21,12,72,73,24,14,15,26,79,
5,3,22,72,72,73,24,25,3,4,
24,24,24,24,18,18,24,20,14,14,
24,24,24,24,24,72,73,20,20,20,
43,56,22,24,24,72,73,25,55,53,
79,21,32,33,20,72,34,35,26,79,
79,41,42,54,22,25,51,42,46,79,
79,79,79,1,22,25,6,79,79,79
</data>
 </layer>
</map>
