<?xml version="1.0" encoding="UTF-8"?>
<map version="1.10" tiledversion="1.10.2" orientation="orthogonal" renderorder="left-up" width="10" height="10" tilewidth="16" tileheight="16" infinite="0" nextlayerid="2" nextobjectid="1">
 <tileset firstgid="1" source="Dungeon_Tileset.tsx"/>
 <layer id="1" name="Calque de Tuiles 1" width="10" height="10">
  <data encoding="csv">
79,79,79,79,79,79,79,79,79,79,
79,1,2,4,3,3,3,5,6,79,
79,11,12,13,13,13,13,15,16,79,
3,3,22,19,19,19,19,25,16,79,
12,14,24,19,19,19,19,25,16,79,
32,34,24,19,19,19,19,25,16,79,
52,54,22,19,19,19,19,25,16,79,
79,31,32,33,33,33,33,35,16,79,
79,41,44,42,42,44,44,44,46,79,
79,79,79,79,79,79,79,79,79,79
</data>
 </layer>
</map>
